;FLAVOR:Marlin
;TIME:7969
;Filament used: 26.8615m
;Layer height: 0.3
;MINX:11.45
;MINY:11.45
;MINZ:0.32
;MAXX:223.55
;MAXY:223.548
;MAXZ:30.72
;Generated with Cura_SteamEngine 99.9.1-Arachne_engine_beta
M140 S45
M105
M190 S45
M82 ;absolute extrusion mode
; Ender 3 Custom Start G-code
G92 E0 ; Reset Extruder
G28 ; Home all axes
G1 Z2.0 F3000 ; Move Z Axis up little to prevent scratching of Heat Bed
G1 X0.1 Y20 Z0.3 F5000.0 ; Move to start position
G1 X0.1 Y200.0 Z0.3 F1500.0 E15 ; Draw the first line
G1 X0.4 Y200.0 Z0.3 F5000.0 ; Move to side a little
G1 X0.4 Y20 Z0.3 F1500.0 E30 ; Draw the second line
G92 E0 ; Reset Extruder
G1 Z2.0 F3000 ; Move Z Axis up little to prevent scratching of Heat Bed
G1 X5 Y20 Z0.3 F5000.0 ; Move over to prevent blob squish
M140 S45	; start bed heating and continue
M109 S220		; wait for extruder to reach target temp
M190 S45	; wait for bed to reach target temp
G92 E0
G92 E0
G1 F2700 E-5
;LAYER_COUNT:99
;LAYER:0
M107
G1 F300 Z1.32
G0 F6000 X20.752 Y20.329 Z1.32
G0 X20.209 Y20.871
;TYPE:SKIRT
G1 F300 Z0.32
G1 F2700 E0
G1 F1200 X20.752 Y20.329 E0.06941
G1 X21.412 Y19.698 E0.15201
G1 X21.832 Y19.316 E0.20338
G1 X22.368 Y18.854 E0.26739
G1 X23.145 Y18.211 E0.35863
G1 X23.62 Y17.838 E0.41327
G1 X24.263 Y17.363 E0.48559
G1 X25.029 Y16.822 E0.57043
G1 X25.539 Y16.481 E0.62593
G1 X26.199 Y16.069 E0.69632
G1 X27.03 Y15.573 E0.78387
G1 X27.524 Y15.293 E0.83524
G1 X28.154 Y14.959 E0.89975
G1 X28.735 Y14.662 E0.95878
G1 X29.562 Y14.269 E1.04162
G1 X30.845 Y13.718 E1.16794
G1 X31.693 Y13.389 E1.25023
G1 X32.066 Y13.255 E1.28608
G1 X32.999 Y12.939 E1.3752
G1 X33.921 Y12.659 E1.46237
G1 X34.305 Y12.553 E1.49841
G1 X35.256 Y12.309 E1.58723
G1 X35.849 Y12.173 E1.64227
G1 X36.952 Y11.956 E1.74397
G1 X37.864 Y11.803 E1.82763
G1 X38.47 Y11.718 E1.88299
G1 X39.262 Y11.629 E1.95509
G1 X40.166 Y11.546 E2.03722
G1 X41.016 Y11.496 E2.11425
G1 X43.139 Y11.452 E2.30635
G1 X191.633 Y11.45 E15.74024
G1 X193.614 Y11.485 E15.91949
G1 X194.105 Y11.504 E15.96394
G1 X194.942 Y11.554 E16.0398
G1 X195.534 Y11.604 E16.09354
G1 X196.257 Y11.687 E16.15938
G1 X197.173 Y11.809 E16.24298
G1 X197.738 Y11.898 E16.29473
G1 X198.434 Y12.027 E16.35876
G1 X199.166 Y12.175 E16.42633
G1 X199.76 Y12.311 E16.48146
G1 X200.806 Y12.585 E16.57928
G1 X201.767 Y12.865 E16.66983
G1 X202.338 Y13.047 E16.72405
G1 X202.973 Y13.269 E16.78491
G1 X204.015 Y13.66 E16.88559
G1 X204.864 Y14.015 E16.96884
G1 X205.71 Y14.396 E17.05278
G1 X206.463 Y14.76 E17.12844
G1 X206.856 Y14.964 E17.1685
G1 X207.765 Y15.456 E17.26201
G1 X208.578 Y15.929 E17.3471
G1 X209.726 Y16.658 E17.47013
G1 X210.258 Y17.019 E17.52829
G1 X211.154 Y17.671 E17.62854
G1 X211.88 Y18.23 E17.71144
G1 X212.323 Y18.588 E17.76296
G1 X212.89 Y19.073 E17.83046
G1 X213.709 Y19.809 E17.93008
G1 X214.333 Y20.412 E18.00858
G1 X215.046 Y21.14 E18.10077
G1 X215.648 Y21.79 E18.18092
G1 X216.587 Y22.895 E18.3121
G1 X216.96 Y23.361 E18.3661
G1 X217.637 Y24.263 E18.46813
G1 X218.178 Y25.029 E18.55297
G1 X218.519 Y25.539 E18.60847
G1 X218.884 Y26.12 E18.67055
G1 X219.249 Y26.721 E18.73416
G1 X219.718 Y27.546 E18.82001
G1 X220.308 Y28.676 E18.93534
G1 X220.727 Y29.553 E19.02327
G1 X221.272 Y30.821 E19.14813
G1 X221.459 Y31.286 E19.19347
G1 X221.741 Y32.054 E19.26748
G1 X222.052 Y32.969 E19.35491
G1 X222.21 Y33.471 E19.40252
G1 X222.445 Y34.3 E19.48048
G1 X222.684 Y35.23 E19.56734
G1 X222.801 Y35.726 E19.61345
G1 X222.979 Y36.598 E19.69396
G1 X223.139 Y37.494 E19.7763
G1 X223.219 Y38.007 E19.82327
G1 X223.324 Y38.827 E19.89806
G1 X223.422 Y39.772 E19.98401
G1 X223.467 Y40.331 E20.03475
G1 X223.513 Y41.294 E20.12197
G1 X223.55 Y43.367 E20.30954
G1 X223.548 Y191.859 E33.74325
G1 X223.515 Y193.614 E33.90205
G1 X223.496 Y194.103 E33.94632
G1 X223.446 Y194.941 E34.02226
G1 X223.381 Y195.659 E34.08749
G1 X223.242 Y196.815 E34.19282
G1 X223.151 Y197.434 E34.24942
G1 X222.974 Y198.431 E34.34103
G1 X222.828 Y199.154 E34.40776
G1 X222.692 Y199.747 E34.4628
G1 X222.439 Y200.722 E34.55392
G1 X222.122 Y201.815 E34.65688
G1 X221.869 Y202.58 E34.72977
G1 X221.522 Y203.542 E34.82229
G1 X221.338 Y204.021 E34.86871
G1 X220.985 Y204.864 E34.95139
G1 X220.604 Y205.71 E35.03533
G1 X220.24 Y206.463 E35.111
G1 X219.562 Y207.734 E35.24132
G1 X219.302 Y208.192 E35.28896
G1 X218.873 Y208.898 E35.3637
G1 X218.344 Y209.724 E35.45244
G1 X217.98 Y210.26 E35.51105
G1 X217.329 Y211.154 E35.6111
G1 X216.77 Y211.88 E35.69399
G1 X216.412 Y212.323 E35.74552
G1 X215.928 Y212.888 E35.81283
G1 X215.191 Y213.709 E35.91264
G1 X214.588 Y214.333 E35.99114
G1 X213.86 Y215.046 E36.08333
G1 X213.432 Y215.446 E36.13632
G1 X212.627 Y216.151 E36.23313
G1 X211.849 Y216.794 E36.32444
G1 X211.38 Y217.162 E36.37837
G1 X210.737 Y217.637 E36.45069
G1 X209.971 Y218.178 E36.53553
G1 X209.461 Y218.519 E36.59104
G1 X208.867 Y218.891 E36.65444
G1 X207.881 Y219.479 E36.7583
G1 X207.128 Y219.892 E36.836
G1 X206.309 Y220.315 E36.91939
G1 X205.437 Y220.731 E37.00679
G1 X204.155 Y221.281 E37.13299
G1 X203.323 Y221.606 E37.2138
G1 X202.005 Y222.06 E37.33991
G1 X201.431 Y222.238 E37.39428
G1 X200.344 Y222.539 E37.49632
G1 X199.438 Y222.762 E37.58073
G1 X198.87 Y222.888 E37.63337
G1 X198.048 Y223.044 E37.70906
G1 X197.136 Y223.197 E37.79272
G1 X196.53 Y223.282 E37.84808
G1 X195.738 Y223.371 E37.92018
G1 X194.834 Y223.454 E38.0023
G1 X193.984 Y223.504 E38.07933
G1 X191.861 Y223.548 E38.27144
G1 X43.141 Y223.548 E51.72578
G1 X41.386 Y223.515 E51.88457
G1 X40.897 Y223.496 E51.92885
G1 X40.059 Y223.446 E52.00479
G1 X39.34 Y223.381 E52.0701
G1 X38.177 Y223.241 E52.17608
G1 X37.555 Y223.15 E52.23295
G1 X36.566 Y222.973 E52.32384
G1 X35.834 Y222.825 E52.3914
G1 X35.24 Y222.689 E52.44653
G1 X34.194 Y222.415 E52.54435
G1 X33.233 Y222.135 E52.63491
G1 X32.662 Y221.953 E52.68913
G1 X32.024 Y221.73 E52.75027
G1 X31.397 Y221.5 E52.81069
G1 X30.468 Y221.127 E52.90125
G1 X29.286 Y220.601 E53.0183
G1 X28.537 Y220.24 E53.09352
G1 X28.144 Y220.036 E53.13357
G1 X27.235 Y219.544 E53.22708
G1 X26.789 Y219.291 E53.27347
G1 X26.099 Y218.871 E53.34655
G1 X25.272 Y218.341 E53.43541
G1 X24.742 Y217.981 E53.49337
G1 X23.846 Y217.329 E53.59362
G1 X23.12 Y216.77 E53.67651
G1 X22.675 Y216.41 E53.7283
G1 X22.112 Y215.928 E53.79535
G1 X21.26 Y215.162 E53.899
G1 X20.647 Y214.568 E53.97622
G1 X19.945 Y213.851 E54.067
G1 X19.529 Y213.405 E54.12217
G1 X18.854 Y212.632 E54.21501
G1 X18.211 Y211.855 E54.30625
G1 X17.838 Y211.38 E54.36089
G1 X17.363 Y210.737 E54.43321
G1 X16.822 Y209.971 E54.51805
G1 X16.481 Y209.461 E54.57355
G1 X16.069 Y208.801 E54.64394
G1 X15.573 Y207.97 E54.73149
G1 X15.293 Y207.476 E54.78286
G1 X14.913 Y206.756 E54.85652
G1 X14.502 Y205.935 E54.93958
G1 X14.256 Y205.411 E54.99195
G1 X13.959 Y204.728 E55.05932
G1 X13.586 Y203.822 E55.14796
G1 X13.365 Y203.245 E55.20386
G1 X13.137 Y202.594 E55.26626
G1 X12.919 Y201.942 E55.32846
G1 X12.75 Y201.392 E55.38051
G1 X12.461 Y200.344 E55.47886
G1 X12.239 Y199.444 E55.56272
G1 X12.112 Y198.87 E55.6159
G1 X11.971 Y198.135 E55.68361
G1 X11.849 Y197.439 E55.74754
G1 X11.715 Y196.508 E55.83263
G1 X11.573 Y195.171 E55.95426
G1 X11.531 Y194.632 E56.00317
G1 X11.487 Y193.706 E56.08704
G1 X11.45 Y191.633 E56.27461
G1 X11.452 Y43.141 E69.70832
G1 X11.485 Y41.386 E69.86712
G1 X11.504 Y40.897 E69.91139
G1 X11.554 Y40.059 E69.98734
G1 X11.604 Y39.466 E70.04118
G1 X11.687 Y38.743 E70.10701
G1 X11.809 Y37.827 E70.19061
G1 X11.898 Y37.262 E70.24236
G1 X12.047 Y36.471 E70.31518
G1 X12.246 Y35.526 E70.40254
G1 X12.384 Y34.943 E70.45674
G1 X12.562 Y34.273 E70.51946
G1 X12.769 Y33.544 E70.58802
G1 X13.036 Y32.698 E70.66827
G1 X13.492 Y31.421 E70.79095
G1 X13.676 Y30.945 E70.83711
G1 X14.016 Y30.136 E70.9165
G1 X14.402 Y29.279 E71.00153
G1 X14.766 Y28.526 E71.0772
G1 X14.962 Y28.148 E71.11572
G1 X15.459 Y27.229 E71.21024
G1 X15.778 Y26.675 E71.26807
G1 X16.295 Y25.835 E71.3573
G1 X16.679 Y25.24 E71.42137
G1 X17.019 Y24.742 E71.47592
G1 X17.671 Y23.846 E71.57617
G1 X18.23 Y23.12 E71.65906
G1 X18.588 Y22.677 E71.71059
G1 X19.131 Y22.045 E71.78597
G1 X19.805 Y21.297 E71.87706
G1 X20.209 Y20.871 E71.93017
G0 F6000 X20.4 Y21.833
G1 F1200 X20.776 Y21.435 E71.97971
G1 X21.305 Y20.908 E72.04726
G1 X21.965 Y20.277 E72.12987
G1 X22.356 Y19.92 E72.17776
G1 X22.878 Y19.47 E72.24011
G1 X23.655 Y18.827 E72.33136
G1 X24.098 Y18.479 E72.38232
G1 X24.725 Y18.017 E72.45278
G1 X25.491 Y17.476 E72.53762
G1 X25.967 Y17.157 E72.58946
G1 X26.609 Y16.756 E72.65793
G1 X27.44 Y16.26 E72.74549
G1 X27.901 Y15.999 E72.79341
G1 X28.518 Y15.671 E72.85663
G1 X29.099 Y15.374 E72.91566
G1 X29.898 Y14.995 E72.99566
G1 X31.157 Y14.455 E73.1196
G1 X31.975 Y14.137 E73.19899
G1 X33.256 Y13.697 E73.32153
G1 X34.145 Y13.427 E73.40558
G1 X35.455 Y13.084 E73.52809
G1 X36.008 Y12.957 E73.57942
G1 X37.084 Y12.745 E73.67863
G1 X37.996 Y12.592 E73.76229
G1 X38.562 Y12.512 E73.81401
G1 X39.335 Y12.426 E73.88437
G1 X40.239 Y12.343 E73.9665
G1 X41.05 Y12.295 E74.03999
G1 X43.367 Y12.25 E74.24965
G1 X191.633 Y12.25 E87.66291
G1 X193.599 Y12.285 E87.8408
G1 X194.057 Y12.303 E87.88227
G1 X194.894 Y12.353 E87.95812
G1 X195.446 Y12.4 E88.00824
G1 X196.152 Y12.48 E88.07252
G1 X197.068 Y12.602 E88.15612
G1 X197.595 Y12.685 E88.20438
G1 X198.276 Y12.811 E88.26704
G1 X199.008 Y12.959 E88.3346
G1 X199.562 Y13.086 E88.38602
G1 X200.582 Y13.353 E88.4814
G1 X201.543 Y13.633 E88.57196
G1 X202.076 Y13.803 E88.62257
G1 X202.698 Y14.02 E88.68217
G1 X203.712 Y14.4 E88.78013
G1 X204.535 Y14.745 E88.86086
G1 X205.746 Y15.298 E88.9813
G1 X206.475 Y15.667 E89.05522
G1 X207.384 Y16.159 E89.14873
G1 X208.168 Y16.616 E89.23083
G1 X209.295 Y17.331 E89.35157
G1 X209.791 Y17.668 E89.40582
G1 X210.666 Y18.305 E89.50373
G1 X211.392 Y18.864 E89.58663
G1 X211.805 Y19.198 E89.63468
G1 X212.359 Y19.672 E89.70064
G1 X213.159 Y20.39 E89.79789
G1 X213.762 Y20.971 E89.87364
G1 X214.475 Y21.699 E89.96583
G1 X215.054 Y22.327 E90.0431
G1 X215.315 Y22.626 E90.07901
G1 X215.975 Y23.41 E90.17172
G1 X216.323 Y23.845 E90.22212
G1 X216.983 Y24.725 E90.32163
G1 X217.524 Y25.491 E90.40647
G1 X217.843 Y25.967 E90.45831
G1 X218.2 Y26.535 E90.519
G1 X218.565 Y27.136 E90.58262
G1 X219.018 Y27.935 E90.66571
G1 X219.597 Y29.043 E90.77881
G1 X220.001 Y29.89 E90.8637
G1 X220.536 Y31.133 E90.98613
G1 X220.863 Y31.975 E91.06785
G1 X221.294 Y33.227 E91.18763
G1 X221.442 Y33.695 E91.23204
G1 X221.671 Y34.499 E91.30767
G1 X221.91 Y35.429 E91.39454
G1 X222.122 Y36.382 E91.48286
G1 X222.352 Y37.634 E91.59802
G1 X222.488 Y38.575 E91.68404
G1 X222.626 Y39.855 E91.80051
G1 X222.668 Y40.377 E91.84788
G1 X222.713 Y41.31 E91.93239
G1 X222.75 Y43.367 E92.11851
G1 X222.748 Y191.844 E105.55086
G1 X222.715 Y193.599 E105.70966
G1 X222.697 Y194.055 E105.75095
G1 X222.647 Y194.893 E105.82689
G1 X222.587 Y195.563 E105.88775
G1 X222.448 Y196.719 E105.99308
G1 X222.363 Y197.298 E106.04602
G1 X222.189 Y198.273 E106.13562
G1 X222.043 Y198.996 E106.20235
G1 X221.917 Y199.549 E106.25366
G1 X221.669 Y200.504 E106.34292
G1 X221.36 Y201.571 E106.44342
G1 X221.117 Y202.308 E106.51362
G1 X220.77 Y203.27 E106.60614
G1 X220.406 Y204.184 E106.69515
G1 X219.874 Y205.381 E106.81365
G1 X219.523 Y206.108 E106.88668
G1 X218.858 Y207.354 E107.01446
G1 X218.616 Y207.781 E107.05886
G1 X218.2 Y208.466 E107.13136
G1 X217.671 Y209.292 E107.2201
G1 X217.331 Y209.793 E107.27487
G1 X216.695 Y210.666 E107.37259
G1 X216.136 Y211.392 E107.45548
G1 X215.802 Y211.805 E107.50353
G1 X215.33 Y212.357 E107.56924
G1 X214.611 Y213.159 E107.66668
G1 X214.029 Y213.762 E107.7425
G1 X213.301 Y214.475 E107.83469
G1 X212.901 Y214.848 E107.88416
G1 X212.117 Y215.534 E107.97841
G1 X211.339 Y216.177 E108.06972
G1 X210.902 Y216.521 E108.12003
G1 X210.275 Y216.983 E108.19049
G1 X209.509 Y217.524 E108.27533
G1 X209.033 Y217.843 E108.32717
G1 X208.453 Y218.207 E108.38912
G1 X207.492 Y218.78 E108.49034
G1 X206.761 Y219.181 E108.56577
G1 X205.942 Y219.604 E108.64916
G1 X205.101 Y220.005 E108.73345
G1 X203.843 Y220.545 E108.8573
G1 X203.04 Y220.857 E108.93524
G1 X201.748 Y221.302 E109.05886
G1 X201.212 Y221.469 E109.10965
G1 X200.153 Y221.762 E109.20905
G1 X199.247 Y221.985 E109.29346
G1 X198.716 Y222.102 E109.34265
G1 X197.916 Y222.255 E109.41634
G1 X197.004 Y222.408 E109.5
G1 X196.438 Y222.488 E109.55171
G1 X195.665 Y222.574 E109.62208
G1 X194.761 Y222.657 E109.7042
G1 X193.95 Y222.705 E109.7777
G1 X191.633 Y222.75 E109.98735
G1 X43.156 Y222.748 E123.41971
G1 X41.401 Y222.715 E123.5785
G1 X40.945 Y222.697 E123.61979
G1 X40.107 Y222.647 E123.69574
G1 X39.435 Y222.587 E123.75677
G1 X38.272 Y222.447 E123.86275
G1 X37.692 Y222.361 E123.91579
G1 X36.724 Y222.189 E124.00473
G1 X35.992 Y222.041 E124.0723
G1 X35.438 Y221.914 E124.12372
G1 X34.418 Y221.647 E124.2191
G1 X33.457 Y221.367 E124.30966
G1 X32.924 Y221.197 E124.36027
G1 X32.3 Y220.979 E124.42007
G1 X31.673 Y220.749 E124.48049
G1 X30.773 Y220.387 E124.56825
G1 X29.614 Y219.872 E124.68298
G1 X28.892 Y219.523 E124.75553
G1 X28.525 Y219.333 E124.79292
G1 X27.616 Y218.841 E124.88643
G1 X26.827 Y218.381 E124.96905
G1 X25.704 Y217.668 E125.08939
G1 X25.209 Y217.332 E125.14352
G1 X24.334 Y216.695 E125.24143
G1 X23.608 Y216.136 E125.32432
G1 X23.193 Y215.8 E125.37263
G1 X22.643 Y215.33 E125.43808
G1 X21.812 Y214.583 E125.53917
G1 X21.218 Y214.008 E125.61396
G1 X20.516 Y213.291 E125.70474
G1 X20.129 Y212.875 E125.75614
G1 X19.47 Y212.122 E125.84667
G1 X18.827 Y211.345 E125.93791
G1 X18.479 Y210.902 E125.98887
G1 X18.017 Y210.275 E126.05933
G1 X17.476 Y209.509 E126.14417
G1 X17.157 Y209.033 E126.19601
G1 X16.756 Y208.391 E126.26449
G1 X16.26 Y207.56 E126.35204
G1 X15.999 Y207.099 E126.39996
G1 X15.629 Y206.398 E126.47167
G1 X15.218 Y205.577 E126.55473
G1 X14.988 Y205.088 E126.60362
G1 X14.698 Y204.424 E126.66917
G1 X14.325 Y203.518 E126.75781
G1 X14.12 Y202.979 E126.80998
G1 X13.896 Y202.341 E126.87115
G1 X13.678 Y201.689 E126.93335
G1 X13.52 Y201.175 E126.98199
G1 X13.238 Y200.152 E127.07799
G1 X13.016 Y199.252 E127.16186
G1 X12.898 Y198.716 E127.21151
G1 X12.759 Y197.997 E127.27776
G1 X12.637 Y197.301 E127.34168
G1 X12.508 Y196.403 E127.42376
G1 X12.369 Y195.091 E127.54311
G1 X12.33 Y194.587 E127.58885
G1 X12.287 Y193.69 E127.67009
G1 X12.25 Y191.633 E127.85621
G1 X12.252 Y43.156 E141.28856
G1 X12.285 Y41.401 E141.44736
G1 X12.303 Y40.945 E141.48865
G1 X12.353 Y40.107 E141.56459
G1 X12.4 Y39.554 E141.6148
G1 X12.48 Y38.848 E141.67908
G1 X12.602 Y37.932 E141.76268
G1 X12.685 Y37.405 E141.81095
G1 X12.829 Y36.636 E141.88173
G1 X13.028 Y35.691 E141.96909
G1 X13.157 Y35.146 E142.01976
G1 X13.332 Y34.492 E142.08101
G1 X13.664 Y33.351 E142.18851
G1 X13.915 Y32.602 E142.25998
G1 X14.244 Y31.694 E142.34735
G1 X14.416 Y31.249 E142.39051
G1 X14.745 Y30.464 E142.46751
G1 X15.131 Y29.607 E142.55254
G1 X15.482 Y28.882 E142.62541
G1 X15.665 Y28.528 E142.66146
G1 X16.162 Y27.609 E142.75598
G1 X16.46 Y27.092 E142.80997
G1 X16.968 Y26.269 E142.89746
G1 X17.352 Y25.674 E142.96153
G1 X17.668 Y25.209 E143.01239
G1 X18.305 Y24.334 E143.1103
G1 X18.864 Y23.608 E143.1932
G1 X19.198 Y23.195 E143.24125
G1 X19.726 Y22.581 E143.31451
G1 X20.4 Y21.833 E143.4056
G0 F6000 X20.994 Y22.368
G1 F1200 X21.344 Y21.999 E143.45161
G1 X21.858 Y21.486 E143.51731
G1 X22.518 Y20.855 E143.59991
G1 X22.881 Y20.524 E143.64436
G1 X23.389 Y20.087 E143.70498
G1 X24.166 Y19.444 E143.79622
G1 X24.577 Y19.121 E143.84351
G1 X25.186 Y18.67 E143.91207
G1 X25.952 Y18.129 E143.99691
G1 X26.394 Y17.834 E144.04498
G1 X27.019 Y17.443 E144.11168
G1 X27.85 Y16.947 E144.19923
G1 X28.278 Y16.705 E144.24371
G1 X28.882 Y16.384 E144.30559
G1 X29.823 Y15.912 E144.40083
G1 X30.553 Y15.58 E144.47338
G1 X31.469 Y15.192 E144.56337
G1 X32.256 Y14.886 E144.63977
G1 X33.513 Y14.455 E144.75998
G1 X34.37 Y14.195 E144.841
G1 X35.653 Y13.859 E144.96099
G1 X36.168 Y13.741 E145.00878
G1 X37.216 Y13.534 E145.10543
G1 X38.128 Y13.381 E145.18909
G1 X38.654 Y13.307 E145.23714
G1 X39.408 Y13.223 E145.30577
G1 X40.312 Y13.14 E145.3879
G1 X41.083 Y13.094 E145.45778
G1 X43.367 Y13.05 E145.66444
G1 X191.633 Y13.05 E159.07771
G1 X193.584 Y13.085 E159.25424
G1 X194.009 Y13.102 E159.29272
G1 X194.846 Y13.152 E159.36857
G1 X195.359 Y13.195 E159.41515
