;FLAVOR:Marlin
;TIME:8367
;Filament used: 26.8966m
;Layer height: 0.3
;MINX:11.5
;MINY:11.5
;MINZ:0.32
;MAXX:223.6
;MAXY:223.6
;MAXZ:30.72
;Generated with Cura_SteamEngine 4.8.0
M140 S45
M105
M190 S45
M82 ;absolute extrusion mode
; Ender 3 Custom Start G-code
G92 E0 ; Reset Extruder
G28 ; Home all axes
G1 Z2.0 F3000 ; Move Z Axis up little to prevent scratching of Heat Bed
G1 X0.1 Y20 Z0.3 F5000.0 ; Move to start position
G1 X0.1 Y200.0 Z0.3 F1500.0 E15 ; Draw the first line
G1 X0.4 Y200.0 Z0.3 F5000.0 ; Move to side a little
G1 X0.4 Y20 Z0.3 F1500.0 E30 ; Draw the second line
G92 E0 ; Reset Extruder
G1 Z2.0 F3000 ; Move Z Axis up little to prevent scratching of Heat Bed
G1 X5 Y20 Z0.3 F5000.0 ; Move over to prevent blob squish
M140 S45	; start bed heating and continue
M109 S220		; wait for extruder to reach target temp
M190 S45	; wait for bed to reach target temp
G92 E0
G92 E0
G1 F2700 E-5
;LAYER_COUNT:99
;LAYER:0
M107
G1 F300 Z1.32
G0 F6000 X20.741 Y20.438 Z1.32
;TYPE:SKIRT
G1 F300 Z0.32
G1 F2700 E0
G1 F1200 X21.237 Y19.957 E0.06251
G1 X21.492 Y19.717 E0.09419
G1 X21.656 Y19.567 E0.11429
G1 X21.882 Y19.366 E0.14165
G1 X22.363 Y18.95 E0.19919
G1 X22.967 Y18.444 E0.27047
G1 X23.223 Y18.236 E0.30031
G1 X23.396 Y18.099 E0.32027
G1 X23.67 Y17.888 E0.35156
G1 X24.251 Y17.457 E0.41701
G1 X24.814 Y17.054 E0.47964
G1 X25.256 Y16.75 E0.52817
G1 X25.589 Y16.531 E0.56423
G1 X25.986 Y16.28 E0.60672
G1 X26.175 Y16.163 E0.62683
G1 X26.78 Y15.796 E0.69085
G1 X27.055 Y15.634 E0.71972
G1 X27.281 Y15.505 E0.74326
G1 X27.574 Y15.343 E0.77355
G1 X28.01 Y15.11 E0.81828
G1 X28.785 Y14.712 E0.89709
G1 X29.098 Y14.558 E0.92865
G1 X29.338 Y14.444 E0.95269
G1 X29.649 Y14.302 E0.98362
G1 X30.248 Y14.04 E1.04277
G1 X30.932 Y13.753 E1.10987
G1 X31.223 Y13.635 E1.13828
G1 X31.444 Y13.549 E1.15973
G1 X31.805 Y13.415 E1.19457
G1 X32.27 Y13.251 E1.23918
G1 X33.099 Y12.973 E1.31828
G1 X33.425 Y12.869 E1.34924
G1 X33.673 Y12.794 E1.37268
G1 X33.992 Y12.702 E1.40271
G1 X34.425 Y12.584 E1.44331
G1 X35.347 Y12.349 E1.52939
G1 X35.665 Y12.273 E1.55897
G1 X35.857 Y12.23 E1.57677
G1 X36.413 Y12.116 E1.62811
G1 X36.772 Y12.047 E1.66119
G1 X37.609 Y11.9 E1.73807
G1 X37.933 Y11.848 E1.76775
G1 X38.158 Y11.815 E1.78833
G1 X38.52 Y11.768 E1.82135
G1 X39.231 Y11.687 E1.88609
G1 X39.9 Y11.621 E1.94691
G1 X40.212 Y11.594 E1.97524
G1 X40.447 Y11.577 E1.99655
G1 X40.806 Y11.557 E2.02908
G1 X41.345 Y11.537 E2.07788
G1 X43.189 Y11.502 E2.24473
G1 X43.417 Y11.5 E2.26536
G1 X191.683 Y11.5 E15.67862
G1 X191.908 Y11.502 E15.69898
G1 X193.664 Y11.535 E15.85787
G1 X194.053 Y11.549 E15.89308
G1 X194.639 Y11.579 E15.94616
G1 X194.978 Y11.601 E15.9769
G1 X195.229 Y11.621 E15.99968
G1 X195.584 Y11.654 E16.03193
G1 X196.031 Y11.703 E16.07261
G1 X196.953 Y11.819 E16.15668
G1 X197.267 Y11.863 E16.18537
G1 X197.468 Y11.894 E16.20376
G1 X197.788 Y11.948 E16.23312
G1 X198.255 Y12.033 E16.27607
G1 X198.484 Y12.077 E16.29716
G1 X199.216 Y12.225 E16.36472
G1 X199.632 Y12.317 E16.40327
G1 X199.845 Y12.368 E16.42308
G1 X200.107 Y12.434 E16.44752
G1 X200.555 Y12.552 E16.48944
G1 X200.778 Y12.613 E16.51035
G1 X201.489 Y12.815 E16.57722
G1 X201.784 Y12.903 E16.60507
G1 X202.034 Y12.981 E16.62876
G1 X202.388 Y13.097 E16.66246
G1 X203.023 Y13.319 E16.72332
G1 X203.645 Y13.547 E16.78325
G1 X203.949 Y13.663 E16.81269
G1 X204.203 Y13.764 E16.83742
G1 X204.511 Y13.892 E16.86759
G1 X204.955 Y14.083 E16.91132
G1 X205.188 Y14.186 E16.93436
G1 X205.807 Y14.468 E16.9959
G1 X206.061 Y14.587 E17.02128
G1 X206.313 Y14.709 E17.04661
G1 X206.675 Y14.892 E17.0833
G1 X207.234 Y15.188 E17.14053
G1 X207.858 Y15.529 E17.20486
G1 X208.143 Y15.69 E17.23447
G1 X208.349 Y15.81 E17.25604
G1 X208.662 Y15.999 E17.28912
G1 X209.215 Y16.345 E17.34813
G1 X209.81 Y16.729 E17.41219
G1 X210.137 Y16.948 E17.4478
G1 X210.541 Y17.232 E17.49248
G1 X210.955 Y17.534 E17.53884
G1 X211.147 Y17.677 E17.56049
G1 X211.694 Y18.093 E17.62266
G1 X211.92 Y18.269 E17.64858
G1 X212.099 Y18.412 E17.6693
G1 X212.373 Y18.638 E17.70144
G1 X212.736 Y18.946 E17.7445
G1 X212.94 Y19.123 E17.76894
G1 X213.476 Y19.599 E17.83379
G1 X213.699 Y19.802 E17.86107
G1 X213.911 Y20 E17.88731
G1 X214.179 Y20.259 E17.92103
G1 X214.663 Y20.742 E17.98289
G1 X215.139 Y21.233 E18.04476
G1 X215.343 Y21.449 E18.07164
G1 X215.498 Y21.617 E18.09232
G1 X215.734 Y21.881 E18.12435
G1 X216.156 Y22.369 E18.18272
G1 X216.662 Y22.974 E18.25407
G1 X216.864 Y23.223 E18.28308
G1 X217.001 Y23.396 E18.30304
G1 X217.212 Y23.67 E18.33433
G1 X217.643 Y24.251 E18.39977
G1 X218.041 Y24.807 E18.46163
G1 X218.202 Y25.038 E18.4871
G1 X218.345 Y25.248 E18.51009
G1 X218.569 Y25.589 E18.547
G1 X218.934 Y26.17 E18.60907
G1 X219.299 Y26.771 E18.67268
G1 X219.469 Y27.061 E18.70309
G1 X219.6 Y27.291 E18.72704
G1 X219.757 Y27.574 E18.75632
G1 X219.99 Y28.01 E18.80104
G1 X220.381 Y28.771 E18.87844
G1 X220.523 Y29.059 E18.90749
G1 X220.643 Y29.31 E18.93266
G1 X220.803 Y29.658 E18.96731
G1 X221.056 Y30.238 E19.02456
G1 X221.337 Y30.906 E19.09012
G1 X221.463 Y31.216 E19.12039
G1 X221.555 Y31.453 E19.14339
G1 X221.685 Y31.805 E19.17734
G1 X221.909 Y32.444 E19.2386
G1 X222.117 Y33.064 E19.29776
G1 X222.232 Y33.425 E19.33204
G1 X222.312 Y33.691 E19.35716
G1 X222.398 Y33.992 E19.38548
G1 X222.571 Y34.634 E19.44564
G1 X222.745 Y35.321 E19.50975
G1 X222.818 Y35.629 E19.53839
G1 X222.922 Y36.102 E19.5822
G1 X223.012 Y36.552 E19.62372
G1 X223.078 Y36.911 E19.65674
G1 X223.195 Y37.577 E19.71791
G1 X223.25 Y37.915 E19.74889
G1 X223.286 Y38.161 E19.77138
G1 X223.332 Y38.52 E19.80413
G1 X223.412 Y39.217 E19.8676
G1 X223.477 Y39.868 E19.92679
G1 X223.506 Y40.208 E19.95766
G1 X223.524 Y40.461 E19.9806
G1 X223.543 Y40.804 E20.01168
G1 X223.563 Y41.344 E20.06057
G1 X223.598 Y43.189 E20.22751
G1 X223.6 Y43.417 E20.24814
G1 X223.6 Y191.683 E33.6614
G1 X223.598 Y191.909 E33.68185
G1 X223.565 Y193.664 E33.84065
G1 X223.552 Y194.047 E33.87531
G1 X223.523 Y194.618 E33.92704
G1 X223.501 Y194.95 E33.95714
G1 X223.48 Y195.217 E33.98137
G1 X223.446 Y195.584 E34.01471
G1 X223.397 Y196.031 E34.05539
G1 X223.282 Y196.943 E34.13855
G1 X223.237 Y197.265 E34.16797
G1 X223.205 Y197.472 E34.18692
G1 X223.152 Y197.788 E34.2159
G1 X223.024 Y198.481 E34.27966
G1 X222.878 Y199.204 E34.34639
G1 X222.787 Y199.616 E34.38456
G1 X222.734 Y199.838 E34.40521
G1 X222.666 Y200.107 E34.43031
G1 X222.489 Y200.772 E34.49256
G1 X222.288 Y201.481 E34.55923
G1 X222.194 Y201.798 E34.58914
G1 X222.115 Y202.05 E34.61304
G1 X222.003 Y202.388 E34.64525
G1 X221.78 Y203.026 E34.70639
G1 X221.55 Y203.653 E34.76681
G1 X221.435 Y203.954 E34.79596
G1 X221.336 Y204.203 E34.8202
G1 X221.208 Y204.511 E34.85038
G1 X221.017 Y204.955 E34.8941
G1 X220.914 Y205.188 E34.91715
G1 X220.632 Y205.807 E34.97869
G1 X220.513 Y206.061 E35.00406
G1 X220.391 Y206.313 E35.02939
G1 X220.208 Y206.675 E35.06609
G1 X219.92 Y207.219 E35.12177
G1 X219.591 Y207.823 E35.184
G1 X219.415 Y208.135 E35.2164
G1 X219.283 Y208.361 E35.24008
G1 X219.101 Y208.662 E35.2719
G1 X218.757 Y209.211 E35.33051
G1 X218.374 Y209.805 E35.39445
G1 X218.145 Y210.148 E35.43176
G1 X217.868 Y210.541 E35.47526
G1 X217.566 Y210.955 E35.52162
G1 X216.995 Y211.708 E35.60711
G1 X216.823 Y211.93 E35.63252
G1 X216.688 Y212.099 E35.65209
G1 X216.462 Y212.373 E35.68422
G1 X216.154 Y212.736 E35.72729
G1 X215.978 Y212.938 E35.75153
G1 X215.504 Y213.472 E35.81612
G1 X215.297 Y213.7 E35.84398
G1 X215.097 Y213.914 E35.87048
G1 X214.841 Y214.179 E35.90382
G1 X214.358 Y214.663 E35.96567
G1 X213.867 Y215.139 E36.02754
G1 X213.651 Y215.343 E36.05442
G1 X213.483 Y215.498 E36.0751
G1 X213.219 Y215.734 E36.10713
G1 X212.728 Y216.158 E36.16582
G1 X212.125 Y216.662 E36.23692
G1 X211.893 Y216.852 E36.26405
G1 X211.718 Y216.991 E36.28427
G1 X211.43 Y217.212 E36.31711
G1 X211.04 Y217.503 E36.36113
G1 X210.852 Y217.64 E36.38218
G1 X210.288 Y218.044 E36.44494
G1 X210.036 Y218.22 E36.47275
G1 X209.834 Y218.357 E36.49483
G1 X209.511 Y218.569 E36.52978
G1 X209.114 Y218.82 E36.57227
G1 X208.311 Y219.308 E36.65728
G1 X208.029 Y219.474 E36.68689
G1 X207.804 Y219.602 E36.7103
G1 X207.535 Y219.751 E36.73812
G1 X207.098 Y219.985 E36.78297
G1 X206.895 Y220.091 E36.80369
G1 X206.314 Y220.388 E36.86272
G1 X206.018 Y220.534 E36.89258
G1 X205.779 Y220.648 E36.91653
G1 X205.441 Y220.803 E36.95017
G1 X204.849 Y221.061 E37.00859
G1 X204.167 Y221.347 E37.0755
G1 X203.904 Y221.454 E37.10118
G1 X203.682 Y221.541 E37.12276
G1 X203.295 Y221.685 E37.16011
G1 X202.644 Y221.913 E37.22251
G1 X202.007 Y222.126 E37.28328
G1 X201.663 Y222.235 E37.31592
G1 X201.414 Y222.31 E37.33945
G1 X201.124 Y222.393 E37.36674
G1 X200.459 Y222.573 E37.42906
G1 X199.745 Y222.753 E37.49568
G1 X199.435 Y222.827 E37.52451
G1 X199.243 Y222.87 E37.54231
G1 X198.687 Y222.984 E37.59366
G1 X198.328 Y223.053 E37.62673
G1 X197.491 Y223.2 E37.70361
G1 X197.188 Y223.249 E37.73138
G1 X196.959 Y223.283 E37.75232
G1 X196.563 Y223.335 E37.78846
G1 X195.853 Y223.415 E37.85309
G1 X195.18 Y223.481 E37.91427
G1 X194.772 Y223.514 E37.9513
G1 X194.411 Y223.537 E37.98403
G1 X193.979 Y223.557 E38.02315
G1 X193.761 Y223.563 E38.04288
G1 X191.87 Y223.598 E38.21398
G1 X191.648 Y223.6 E38.23407
G1 X43.417 Y223.6 E51.64417
G1 X43.192 Y223.598 E51.66452
G1 X41.436 Y223.565 E51.82341
G1 X41.049 Y223.551 E51.85845
G1 X40.462 Y223.521 E51.91162
G1 X40.117 Y223.499 E51.94289
G1 X39.867 Y223.479 E51.96558
G1 X39.516 Y223.446 E51.99748
G1 X39.069 Y223.397 E52.03816
G1 X38.148 Y223.281 E52.12214
G1 X37.823 Y223.235 E52.15183
G1 X37.623 Y223.204 E52.17014
G1 X37.312 Y223.152 E52.19867
G1 X36.845 Y223.067 E52.24161
G1 X36.616 Y223.023 E52.26271
G1 X35.884 Y222.875 E52.33027
G1 X35.468 Y222.783 E52.36881
G1 X35.255 Y222.732 E52.38863
G1 X34.993 Y222.666 E52.41307
G1 X34.545 Y222.548 E52.45498
G1 X34.322 Y222.487 E52.4759
G1 X33.611 Y222.285 E52.54277
G1 X33.316 Y222.197 E52.57062
G1 X33.066 Y222.119 E52.59431
G1 X32.712 Y222.003 E52.62801
G1 X32.074 Y221.78 E52.68915
G1 X31.447 Y221.55 E52.74957
G1 X31.146 Y221.435 E52.77872
G1 X30.897 Y221.336 E52.80296
G1 X30.589 Y221.208 E52.83314
G1 X29.911 Y220.914 E52.89999
G1 X29.29 Y220.631 E52.96173
G1 X28.788 Y220.391 E53.01207
G1 X28.425 Y220.208 E53.04885
G1 X27.866 Y219.912 E53.10607
G1 X27.242 Y219.571 E53.1704
G1 X26.957 Y219.41 E53.20001
G1 X26.751 Y219.29 E53.22158
G1 X26.438 Y219.101 E53.25466
G1 X25.885 Y218.755 E53.31367
G1 X25.29 Y218.371 E53.37774
G1 X24.963 Y218.152 E53.41334
G1 X24.559 Y217.868 E53.45802
G1 X24.145 Y217.566 E53.50438
G1 X23.949 Y217.42 E53.52649
G1 X23.388 Y216.993 E53.59027
G1 X22.995 Y216.682 E53.63561
G1 X22.725 Y216.46 E53.66723
G1 X22.361 Y216.151 E53.71043
G1 X22.162 Y215.978 E53.73428
G1 X21.62 Y215.497 E53.79984
G1 X21.382 Y215.28 E53.82898
G1 X21.177 Y215.088 E53.85439
G1 X20.921 Y214.841 E53.88657
G1 X20.439 Y214.36 E53.94817
G1 X19.955 Y213.861 E54.01106
G1 X19.707 Y213.597 E54.04383
G1 X19.56 Y213.436 E54.06356
G1 X19.366 Y213.218 E54.08996
G1 X18.952 Y212.739 E54.14723
G1 X18.445 Y212.134 E54.21864
G1 X18.229 Y211.869 E54.24957
G1 X18.093 Y211.697 E54.26941
G1 X17.888 Y211.43 E54.29986
G1 X17.597 Y211.04 E54.34388
G1 X17.46 Y210.852 E54.36493
G1 X17.056 Y210.288 E54.42769
G1 X16.88 Y210.036 E54.4555
G1 X16.743 Y209.834 E54.47758
G1 X16.531 Y209.511 E54.51253
G1 X16.28 Y209.114 E54.55503
G1 X16.163 Y208.925 E54.57514
G1 X15.796 Y208.32 E54.63915
G1 X15.634 Y208.045 E54.66803
G1 X15.505 Y207.819 E54.69157
G1 X15.343 Y207.526 E54.72186
G1 X15.11 Y207.09 E54.76658
G1 X14.706 Y206.302 E54.84669
G1 X14.562 Y206.011 E54.87606
G1 X14.45 Y205.776 E54.89961
G1 X14.24 Y205.315 E54.94544
G1 X14.037 Y204.847 E54.99159
G1 X13.75 Y204.162 E55.05878
G1 X13.635 Y203.877 E55.08659
G1 X13.549 Y203.656 E55.10804
G1 X13.437 Y203.357 E55.13693
G1 X13.301 Y202.976 E55.17352
G1 X13.187 Y202.644 E55.20528
G1 X12.969 Y201.992 E55.26748
G1 X12.853 Y201.626 E55.30221
G1 X12.783 Y201.392 E55.32431
G1 X12.702 Y201.108 E55.35102
G1 X12.584 Y200.675 E55.39162
G1 X12.349 Y199.753 E55.4777
G1 X12.273 Y199.435 E55.50728
G1 X12.23 Y199.243 E55.52508
G1 X12.116 Y198.687 E55.57643
G1 X12.047 Y198.328 E55.6095
G1 X11.899 Y197.489 E55.68657
G1 X11.841 Y197.122 E55.72019
G1 X11.778 Y196.67 E55.76147
G1 X11.731 Y196.281 E55.79692
G1 X11.686 Y195.864 E55.83487
G1 X11.619 Y195.182 E55.89686
G1 X11.593 Y194.872 E55.92501
G1 X11.577 Y194.65 E55.94514
G1 X11.557 Y194.296 E55.97722
G1 X11.537 Y193.756 E56.0261
G1 X11.502 Y191.911 E56.19305
G1 X11.5 Y191.683 E56.21367
G1 X11.5 Y68.35 E67.37131
G1 X11.503 Y67.455 E67.45228
G1 X11.503 Y51.818 E68.86692
G1 X11.5 Y51.12 E68.93007
G1 X11.5 Y43.417 E69.62694
G1 X11.502 Y43.191 E69.64739
G1 X11.535 Y41.436 E69.80618
G1 X11.549 Y41.044 E69.84167
G1 X11.58 Y40.443 E69.89611
G1 X11.602 Y40.102 E69.92703
G1 X11.621 Y39.865 E69.94854
G1 X11.654 Y39.516 E69.98025
G1 X11.728 Y38.858 E70.04015
G1 X11.821 Y38.129 E70.10664
G1 X11.896 Y37.622 E70.153
G1 X11.948 Y37.312 E70.18144
G1 X12.079 Y36.604 E70.24658
G1 X12.231 Y35.856 E70.31563
G1 X12.319 Y35.461 E70.35224
G1 X12.434 Y34.993 E70.39584
G1 X12.612 Y34.323 E70.45856
G1 X12.819 Y33.594 E70.52712
G1 X12.916 Y33.27 E70.55771
G1 X12.989 Y33.038 E70.57972
G1 X13.097 Y32.712 E70.61078
G1 X13.247 Y32.279 E70.65224
G1 X13.56 Y31.422 E70.73478
G1 X13.679 Y31.111 E70.76491
G1 X13.77 Y30.883 E70.78711
G1 X13.892 Y30.589 E70.81591
G1 X14.083 Y30.145 E70.85964
G1 X14.186 Y29.912 E70.88268
G1 X14.473 Y29.282 E70.94531
G1 X14.598 Y29.016 E70.9719
G1 X14.715 Y28.775 E70.99614
G1 X14.892 Y28.425 E71.03162
G1 X15.185 Y27.872 E71.08824
G1 X15.531 Y27.238 E71.15358
G1 X15.714 Y26.914 E71.18724
G1 X15.829 Y26.718 E71.2078
G1 X15.999 Y26.438 E71.23744
G1 X16.345 Y25.885 E71.29645
G1 X16.729 Y25.29 E71.36052
G1 X16.948 Y24.963 E71.39612
G1 X17.232 Y24.559 E71.4408
G1 X17.534 Y24.145 E71.48716
G1 X17.68 Y23.949 E71.50927
G1 X18.107 Y23.388 E71.57305
G1 X18.418 Y22.995 E71.61839
G1 X18.638 Y22.727 E71.64976
G1 X18.946 Y22.364 E71.69282
G1 X19.129 Y22.154 E71.71802
G1 X19.619 Y21.603 E71.78473
G1 X19.816 Y21.386 E71.81124
G1 X20 Y21.189 E71.83563
G1 X20.259 Y20.921 E71.86935
G1 X20.741 Y20.438 E71.93108
G0 F6000 X21.151 Y21.158
G1 F1200 X21.794 Y20.532 E72.01227
G1 X22.032 Y20.308 E72.04183
G1 X22.406 Y19.97 E72.08744
G1 X22.72 Y19.697 E72.12508
G1 X23.481 Y19.058 E72.21498
G1 X23.72 Y18.863 E72.24288
G1 X23.893 Y18.726 E72.26285
G1 X24.148 Y18.529 E72.292
G1 X24.538 Y18.238 E72.33602
G1 X25.28 Y17.705 E72.41867
G1 X25.502 Y17.55 E72.44317
G1 X25.705 Y17.412 E72.46537
G1 X26.017 Y17.207 E72.49915
G1 X26.59 Y16.847 E72.56037
G1 X27.195 Y16.48 E72.62438
G1 X27.452 Y16.329 E72.65135
G1 X27.678 Y16.2 E72.67489
G1 X27.951 Y16.049 E72.70311
G1 X28.568 Y15.721 E72.76633
G1 X29.149 Y15.424 E72.82536
G1 X29.442 Y15.28 E72.8549
G1 X29.682 Y15.166 E72.87893
G1 X29.971 Y15.034 E72.90768
G1 X30.558 Y14.777 E72.96565
G1 X31.242 Y14.49 E73.03275
G1 X31.513 Y14.38 E73.05921
G1 X31.734 Y14.294 E73.08067
G1 X32.071 Y14.17 E73.11315
G1 X32.714 Y13.944 E73.17481
G1 X33.352 Y13.731 E73.23566
G1 X33.657 Y13.635 E73.26459
G1 X33.905 Y13.56 E73.28803
G1 X34.202 Y13.474 E73.316
G1 X34.635 Y13.356 E73.3566
G1 X35.543 Y13.125 E73.44136
G1 X35.84 Y13.054 E73.46899
G1 X36.276 Y12.959 E73.50936
G1 X36.707 Y12.873 E73.54912
G1 X37.06 Y12.808 E73.58159
G1 X37.747 Y12.688 E73.64468
G1 X38.049 Y12.64 E73.67235
G1 X38.274 Y12.607 E73.69292
G1 X38.612 Y12.562 E73.72377
G1 X39.309 Y12.483 E73.78723
G1 X39.978 Y12.417 E73.84804
G1 X40.27 Y12.392 E73.87456
G1 X40.505 Y12.375 E73.89587
G1 X40.84 Y12.356 E73.92623
G1 X41.1 Y12.345 E73.94977
G1 X41.36 Y12.337 E73.9733
G1 X43.204 Y12.302 E74.14016
G1 X43.417 Y12.3 E74.15943
G1 X191.683 Y12.3 E87.57269
G1 X191.893 Y12.302 E87.59169
G1 X193.649 Y12.335 E87.75058
G1 X194.012 Y12.348 E87.78344
G1 X194.598 Y12.378 E87.83652
G1 X194.915 Y12.398 E87.86526
G1 X195.166 Y12.418 E87.88804
G1 X195.496 Y12.45 E87.91803
G1 X196.137 Y12.522 E87.97639
G1 X196.852 Y12.613 E88.04159
G1 X197.145 Y12.654 E88.06836
G1 X197.346 Y12.685 E88.08676
G1 X197.645 Y12.735 E88.11418
G1 X198.326 Y12.861 E88.17684
G1 X199.058 Y13.009 E88.2444
G1 X199.446 Y13.095 E88.28035
G1 X199.904 Y13.207 E88.32301
